images_sukapura_svg/cmd/lc_fillshadow.svg

<svg viewBox="0 0 24 24" xmlns="http://www.w3.org/2000/svg" xmlns:xlink="http://www.w3.org/1999/xlink"><linearGradient id="a" gradientUnits="userSpaceOnUse" x1="-2" x2="-2" y1="43" y2="33"><stop offset="0" stop-color="#f5f5f5"/><stop offset=".25" stop-color="#fdfdfd"/><stop offset="1" stop-color="#fff"/></linearGradient><path d="m6 7c-.554 0-1 .4428824-1 .9921875v10.0156245c0 .549306.446.992188 1 .992188h15c.554 0 1-.442882 1-.992188v-10.0156245c0-.5493051-.446-.9921875-1-.9921875z" fill="#b7b7b9"/><path d="m3 4c-.554 0-1 .4428824-1 .9921875v10.0156245c0 .549306.446.992188 1 .992188h15c.554 0 1-.442882 1-.992188v-10.0156245c0-.5493051-.446-.9921875-1-.9921875zm0 1h15v10h-15z" fill="#98989d"/><path d="m3 5v10h15v-10z" fill="url(#a)"/></svg>

<?xml version="1.0" encoding="UTF-8" standalone="no"?>
<svg
   xmlns:dc="http://purl.org/dc/elements/1.1/"
   xmlns:cc="http://creativecommons.org/ns#"
   xmlns:rdf="http://www.w3.org/1999/02/22-rdf-syntax-ns#"
   xmlns:svg="http://www.w3.org/2000/svg"
   xmlns="http://www.w3.org/2000/svg"
   xmlns:xlink="http://www.w3.org/1999/xlink"
   xmlns:sodipodi="http://sodipodi.sourceforge.net/DTD/sodipodi-0.dtd"
   xmlns:inkscape="http://www.inkscape.org/namespaces/inkscape"
   viewBox="0 0 24 24"
   version="1.1"
   id="svg6"
   sodipodi:docname="lc_fillshadow.svg"
   inkscape:version="0.92.3 (unknown)"
   inkscape:export-filename="/home/rizmut/Dokumen/Rizmut/Github/libreoffice-style-sukapura/images_sukapura/cmd/lc_fillshadow.png"
   inkscape:export-xdpi="96"
   inkscape:export-ydpi="96">
  <metadata
     id="metadata12">
    <rdf:RDF>
      <cc:Work
         rdf:about="">
        <dc:format>image/svg+xml</dc:format>
        <dc:type
           rdf:resource="http://purl.org/dc/dcmitype/StillImage" />
        <dc:title></dc:title>
      </cc:Work>
    </rdf:RDF>
  </metadata>
  <defs
     id="defs10">
    <linearGradient
       id="a"
       gradientUnits="userSpaceOnUse"
       x1="10"
       x2="10"
       y1="16"
       y2="2"
       gradientTransform="translate(-12,28)">
      <stop
         offset="0"
         stop-color="#f5f5f5"
         id="stop1025" />
      <stop
         offset="0.25"
         stop-color="#fdfdfd"
         id="stop1027" />
      <stop
         offset="1"
         stop-color="#fff"
         id="stop1029" />
    </linearGradient>
    <linearGradient
       inkscape:collect="always"
       xlink:href="#a"
       id="linearGradient855"
       x1="10"
       y1="15"
       x2="10"
       y2="5"
       gradientUnits="userSpaceOnUse" />
  </defs>
  <sodipodi:namedview
     pagecolor="#ffffff"
     bordercolor="#666666"
     borderopacity="1"
     objecttolerance="10"
     gridtolerance="10"
     guidetolerance="10"
     inkscape:pageopacity="0"
     inkscape:pageshadow="2"
     inkscape:window-width="1366"
     inkscape:window-height="706"
     id="namedview8"
     showgrid="true"
     inkscape:zoom="13.906433"
     inkscape:cx="10.528407"
     inkscape:cy="9.8076753"
     inkscape:window-x="0"
     inkscape:window-y="0"
     inkscape:window-maximized="1"
     inkscape:current-layer="svg6">
    <inkscape:grid
       type="xygrid"
       id="grid822"
       spacingx="0.5"
       spacingy="0.5"
       empspacing="2" />
  </sodipodi:namedview>
  <g
     id="g886">
    <path
       sodipodi:nodetypes="sssssssss"
       inkscape:connector-curvature="0"
       style="fill:#b7b7b9;fill-opacity:1;stroke:none;stroke-opacity:1"
       d="M 6,7 C 5.446,7 5,7.4428824 5,7.9921875 V 18.007812 C 5,18.557118 5.446,19 6,19 h 15 c 0.554,0 1,-0.442882 1,-0.992188 V 7.9921875 C 22,7.4428824 21.554,7 21,7 Z"
       id="path876" />
    <g
       id="g880">
      <path
         style="fill:#98989d;fill-opacity:1;stroke:none;stroke-opacity:1"
         d="M 3 4 C 2.446 4 2 4.4428824 2 4.9921875 L 2 15.007812 C 2 15.557118 2.446 16 3 16 L 18 16 C 18.554 16 19 15.557118 19 15.007812 L 19 4.9921875 C 19 4.4428824 18.554 4 18 4 L 3 4 z M 3 5 L 18 5 L 18 15 L 3 15 L 3 5 z "
         id="rect844" />
      <path
         d="M 3,5 V 15 H 18 V 5 Z"
         id="path4"
         inkscape:connector-curvature="0"
         style="fill:url(#linearGradient855);stroke:none;stroke-linecap:round;stroke-linejoin:round;fill-opacity:1"
         sodipodi:nodetypes="ccccc" />
    </g>
  </g>
</svg>
